X: 1343
T: Meclise Gel Dilrubâ
C: Tanburî Mustafa Çavuş
O: Turkey
F: http://compmusic.upf.edu/node/140
N: nisaburek--sarki--aydin--meclise_gel--tanburi_mustafa_cavus
N: makam= nisaburek
N: form= sarki
N: usul= aydin = 9/8
M: 9/8
L: 1/16
K: C ^9/8f ^3/4c ^3/4g 
Q: 1/4=192
%%MIDI tuningsystem comma53
e2f2 e2d2 c4 e2e4 | e2 f2e2 f2g4b2 a4  | \
w:  ARANAĞME  |   | 
_1/4b2a2 g4 a2g2 f4 z2 | 
w:   | 
e2 f2g2 a2g2 f2e4z2  | g2f2 e4 f2e2 d4 f2 | \
w:   |   | 
e2 f2e2 d2c2 B2A4z2  | 
w:   | 
c4 B2c2 B2c2 d2c2 B2 | A2 _1/4B2c2 d2e2 d2e4z2  | \
w:   |   | 
e2f2 e2d2 c4 e2e4 | 
w:  ARANAĞME  | 
e2 f2e2 f2g4b2 a4  | _1/4b2a2 g4 a2g2 f4 z2 | \
w:   |   | 
e2 f2g2 a2g2 f2e4z2  | 
w:   | 
g2f2 e4 f2e2 d4 f2 | e2 f2e2 d2c2 B2A4z2  | \
w:   |   | 
c4 B2c2 B2c2 d2c2 B2 | 
w:   | 
A6 E2F2 G2A4z2  | d4 e4 e4 f4 e2 | e2 d2c2 d2e2 f2=g4z2  | \
w:   |  Mec li se  gel   |  dil *  ru *  bâ    | 
=g4 g2f2 f2e2 e4 f2 | 
w:  Mec li *  se  *  gel   | 
e2 d2c2 d2e2 d2c2 _1/4B2A2  | d4 e4 e4 f4 e2 | \
w:  dil *  ru *  bâ    |  Mec li se  gel   | 
e2 d2c2 d2e2 f2=g4z2  | 
w:  dil *  ru *  bâ    | 
=g4 g2f2 f2e2 e4 f2 | e2 d2c2 d2e2 d2e4z2  | \
w:  Mec li *  se  *  gel   |  dil *  ru *  bâ    | 
f2e2 d2c2 d2c2 d4 c2 | 
w:  Bez *  mi *  mi *  ze   | 
d2 f2e2 d2c2 B2c4z2  | d2c2 d2c2 d2c2 c2B2 A2 | \
w:  ver  *  zi *  yâ    |  Bez *  mi *  mi *  ze   | 
c2 B2A2 G2A4c2 d2e2  | 
w:  ver  *  zi *  yâ   SAZ  | 
f2e2 d2c2 d2c2 d4 c2 | d2 f2e2 d2c2 B2c4z2  | \
w:  Bez *  mi *  mi *  ze   |  ver  *  zi *  yâ    | 
d2c2 d2c2 d2c2 c2B2 A2 | 
w:  Bez *  mi *  mi *  ze   | 
c2 B2A2 G2A8z2  | e4 a4 g2b2 a4 b2 | \
w:  ver  *  zi *  yâ    |  Yan ma da *  yım   | 
a4f2 a2g2 f2e4z2  | g4 g2f2 f2e2 e4 f2 | 
w:  ben  hâ *  lâ    |  Yan ma *  da *  yım   | 
e2 d2c2 d2e2 d2e4z2  | f2e2 d2c2 d2c2 d4 c2 | \
w:  ben  *  hâ *  lâ    |  Bez *  mi *  mi *  ze   | 
d2 f2e2 d2c2 B2c4z2  | 
w:  ver  *  zi *  yâ    | 
d2c2 d2c2 d2c2 c2B2 A2 | c2 B2A2 G2A4c2 d2e2  | \
w:  Bez *  mi *  mi *  ze   |  ver  *  zi *  yâ   SAZ  | 
f2e2 d2c2 d2c2 d4 c2 | 
w:  Bez *  mi *  mi *  ze   | 
d2 f2e2 d2c2 B2c4z2  | d2c2 d2c2 d2c2 c2B2 A2 | \
w:  ver  *  zi *  yâ    |  Bez *  mi *  mi *  ze   | 
c2 B2A2 G2A8z2  | 
w:  ver  *  zi *  yâ    | 
|


